X: 27647
T: Morag Haig-Thomas
R: strathspey
M: 4/4
K: Dmajor
F<G|A2 F>E D2 d>e|f>ed<B d2F<G|A2 F>E D2 g>f|e<EG>F E2F<G|
A2 F>E D2 d>e|f>ed<B d3A|B>AB<d A<Fd>F|E<DF>E D2 f>g|
a2 f>e d2 f>e|d<BA>F A2f>g|a2 f>e d2 g>f|e<EG>F E2 f>g|
a2 f>e d2 f>e|d<BA>F A3d|B>AB<d A<Fd>F|E<DF>E D2||

